X: 18719
T: Ian Peterson's Compliments To Jack Delaney
R: reel
M: 4/4
K: Dmajor
|:A2|D2 FA f2 ed|BcdB AGFE|D2 (3FED ADFD|E2 A2 AGFE|
D2 FA f2 ed|BcdB AGFE|DFAd cABc|d2 D2 D2:|
ed|c2 Ac e2 fg|f2 df a2 a2|^g2 ef gefg|a2 A2 A2 ed|
c2 Ac e2 fg|f2 df a2 A2|BcdB cABc|d2 D2 D2 ed|
c2 Ac e2 fg|f2 df a2 a2|^g2 ef gefg|a2 A2 A2 e2|
f2 ed e2 dc|d2 f2 A2 _B2|=B2 dB cABc|d2 D2 D3||

